X: 11808
T: Ellen's Delight
R: polka
M: 2/4
K: Gmajor
|:G2 g2|fe e2|AB cd|ed BA|
G2 g2|fe e2|AB cA|GF G2:|
|:b2 bd|bd bd/b/|af af|e/f/g a2|
b2 bd|bd bg/b/|ag ef|g2 g2:|

